X: 1
T: the Gentle Maiden
O: Trad
B: O'Neill's 282
N: Also played as a waltz
Z: 2003 by John Chambers <jc:trillian.mit.edu>
M: 6/8
L: 1/8
K: G
F \
| "G"G>AG "D"FED | "G"d3 "C"efg | "G"d>cB "Am"A2G | "C"E3- "D7"E2F \
| "G"G>AG "D"FED | "G"d3 "C"efg | "G"d>cB "D7"A2G | "G"G3- G2 ||
|| d \
| "G"d>ef "C"g2g | "C"g3    gfe | "G"d>cB "Am"A2G | "C"E3- "D7"DEF \
| "G"G>AG "D"FED | "G"d3 "C"efg | "G"d>cB "D7"A2G | "G"G3- G2 ||
